!!!!SEGMENT: pl-kk--kk-i-6--010_anonim--tollite-portas.krn
!!!cenid: 16xx:965
!!!COM: Anonim
!!!COM-rismID: pe30004985
!!!CDT:
!!!CNT:
!!!OTL: Tollite portas
!!!PDT:
!!!AGN: Sacred
!!!SMS-siglum: PL-Kk
!!!SMS-shelfmark: Kk.I.6
!!!SMS-shelfwork: 010 W
!!!SMS-variant:
!!!SMS-altvar:
!!!NIFC-rismSourceID: 1001135619
!!!NIFC-islandoraID: pl-kk:1634
!!!URL-pdf-islandora: https://repozytorium.nifc.pl/islandora/object/pl-kk%3A1634/datastream/PDF/view
!!!URL-scan: https://polish.musicsources.pl/pl/lokalizacje/galeria/rekopisy/6133 @EN{Scan on Polish Music Sources Website} @PL{Skany w portalu Dziedzictwo Muzyki Polskiej w otwartym dostępie}
!!!ONB-nifc: UWAGA: C (skan 0008-0009, s. 12-14), T (skan 0107-0108, s. 18-21), B (skan 0218-0220, s. 17-20) Następny utwór: Alleluia
!!!AIN: 1 bass 1 soprn 1 tenor
!!!key: g:dor
**kern	**text	**text	**kern	**text	**text	**kern	**text	**text	**text
*part3	*part3	*part3	*part2	*part2	*part2	*part1	*part1	*part1	*part1
*staff3	*staff3	*staff3	*staff2	*staff2	*staff2	*staff1	*staff1	*staff1	*staff1
*	*verse1	*verse2	*	*verse1	*verse2	*	*verse1	*verse2	*
*I"Baſsus.	*	*	*I"Tenor.	*	*	*I"Cantus.	*	*	*
*mI"Basso	*	*	*mI"Tenore	*	*	*mI"Soprano	*	*	*
*I'B	*	*	*I'T	*	*	*I'S	*	*	*
*Ibass	*	*	*Itenor	*	*	*Isoprn	*	*	*
*ICvox	*	*	*ICvox	*	*	*ICvox	*	*	*
*clefF4	*	*	*clefC4	*	*	*clefC4	*	*	*
*	*	*	*mclefGv2	*	*	*mclefGv2	*	*	*
*k[b-]	*	*	*k[b-]	*	*	*k[b-]	*	*	*
*g:dor	*	*	*g:dor	*	*	*g:dor	*	*	*
*M2/1	*	*	*M2/1	*	*	*M2/1	*	*	*
*met(C|)	*	*	*met(C|)	*	*	*met(C|)	*	*	*
*mmet(c|)	*	*	*mmet(c|)	*	*	*mmet(c|)	*	*	*
=1-	=1-	=1-	=1-	=1-	=1-	=1-	=1-	=1-	=1-
*	*	*	*	*	*	*lig	*	*	*
!LO:TX:a:t=Graduale.:mod=	!	!	!LO:TX:a:t=Graduale.:mod=	!	!	!LO:TX:a:t=Gradua\nle.:mod=	!	!	!
1C	Tol-	Be-	1G	Tol-	Be-	1C	Tol-	Be-	.
2FF/	-li-	.	2A/	-li-	.	1F	.	.	.
2FF/	-te	-ne-	2A/	-te	-ne-	.	.	.	.
*	*	*	*	*	*	*Xlig	*	*	*
=2-	=2-	=2-	=2-	=2-	=2-	=2-	=2-	=2-	=2-
1D	por-	-di-	2.B-\	por-	-di-	1D	.	.	.
.	.	.	4c\	.	.	.	.	.	.
2GG/	-tas	-cta	2d\	.	.	1D	-li-	-ne-	.
*	*ij	*	*	*	*	*	*	*	*
2.GG/	Tol-	be-	2G,</	-tas	.	.	.	.	.
=3-	=3-	=3-	=3-	=3-	=3-	=3-	=3-	=3-	=3-
*	*	*	*	*ij	*	*	*	*	*
.	.	.	1B-	Tol-	.	1D	-te	-di-	.
4AA/	.	.	.	.	.	.	.	.	.
4BB-/	.	.	.	.	.	.	.	.	.
4C/	.	.	.	.	.	.	.	.	.
*	*	*	*	*	*	*lig	*	*	*
1D	.	.	2A/	-li-	-cta	1F	por-	-cta	.
.	.	.	2A/	-te	et	.	.	.	.
=4-	=4-	=4-	=4-	=4-	=4-	=4-	=4-	=4-	=4-
2BB-/	-li-	.	2.B-\	por-	ve-	1D	.	.	.
2BB-/	-te	-ne-	.	.	.	.	.	.	.
.	.	.	4A/	.	.	.	.	.	.
*	*	*	*	*	*	*Xlig	*	*	*
*	*	*	*	*	*	*lig	*	*	*
4C/	por-	.	2G/	.	.	1E	.	.	.
4BB-/	.	.	.	.	.	.	.	.	.
*	*	*	*custos:G	*	*	*	*	*	*
4AA/	.	.	1.A\	.	-ne-	.	.	.	.
4GG/	.	.	.	.	.	.	.	.	.
=5-	=5-	=5-	=5-	=5-	=5-	=5-	=5-	=5-	=5-
1FF	.	-di-	.	.	.	1F	.	.	.
*	*	*	*	*	*	*Xlig	*	*	*
*custos:C	*	*	*	*	*	*	*	*	*
!	!	!	!LO:PB:g=original	!	!	!	!	!	!
*	*	*	*	*	*	*lig	*	*	*
1GG	-tas	-cta	1.G	-tas	-ra-	1D	tas	et	.
*	*Xij	*	*	*Xij	*	*	*	*	*
!LO:LB:g=original	!	!	!	!	!	!	!	!	!
=6-	=6-	=6-	=6-	=6-	=6-	=6-	=6-	=6-	=6-
!	!	!	!	!	!	!LO:TX:t=P:global:problem=oddech jako rozdzielacz słów	!	!	!
2r	.	.	.	.	.	1C,<	.	.	.
!	!LO:MO:mod=prin-	!	!	!LO:MO:mod=prin-	!	!	!	!	!
2C/	Prin-	et	2c\	Prin-	.	.	.	.	.
*	*	*	*	*	*	*Xlig	*	*	*
*	*	*	*	*	*	*lig	*	*	*
!	!	!	!	!	!LO:MO:mod=-ra-	!	!	!	!
2D/	.	ve-	1A	.	-[[ra]]-	1F	prin-	ve-	.
1F\	-ci-	.	.	.	.	.	.	.	.
=7-	=7-	=7-	=7-	=7-	=7-	=7-	=7-	=7-	=7-
*	*	*	*	*	*	*custos:D	*	*	*
.	.	.	1G	-ci-	-bi-	1C	.	.	.
2E\	-pes	ne-	.	.	.	.	.	.	.
*	*	*	*	*	*	*Xlig	*	*	*
!	!	!	!	!	!	!LO:LB:g=original	!	!	!
*	*ij	*	*	*	*	*lig	*	*	*
!	!LO:MO:mod=prin-	!	!	!	!	!	!	!	!LO:MO:mod=.
1F	Prin-	-ra-	2F/	-pes	-lis	1D	.	-ne-	[[ne]]
*	*	*	*	*ij	*	*	*	*	*
!	!	!	!	!LO:MO:mod=prin-	!	!	!	!	!
.	.	.	1A\	Prin-	es	.	.	.	.
=8-	=8-	=8-	=8-	=8-	=8-	=8-	=8-	=8-	=8-
1D	.	.	.	.	.	1F	.	.	.
.	.	.	2B-\	.	ve-	.	.	.	.
*	*	*	*	*	*	*Xlig	*	*	*
*	*	*	*	*	*	*lig	*	*	*
1C	.	.	1.c	.	-ne-	1G	.	-ra-	.
=9-	=9-	=9-	=9-	=9-	=9-	=9-	=9-	=9-	=9-
1FF	.	.	.	.	.	1A	.	.	.
.	.	.	4B-\	.	-ra-	.	.	.	.
.	.	.	4A/	.	.	.	.	.	.
*	*	*	*	*	*	*Xlig	*	*	*
*	*	*	*	*	*	*lig	*	*	*
1BB-	.	.	2.B-\	.	.	1F	-ci-	.	.
.	.	.	4A/	.	.	.	.	.	.
=10-	=10-	=10-	=10-	=10-	=10-	=10-	=10-	=10-	=10-
2.C/	.	.	4G/	.	.	1E	.	.	.
.	.	.	4F/	.	.	.	.	.	.
.	.	.	1G	.	.	.	.	.	.
!	!LO:MO:mod=.	!	!	!	!	!	!	!	!
4BB-/	-ci-	.	.	.	.	.	.	.	.
*	*	*	*	*	*	*Xlig	*	*	*
!	!LO:MO:mod=-ci-	!	!	!	!	!	!	!	!
2GG/	-pes	.	.	.	.	1D	.	-bi-	.
!	!LO:MO:mod=*null:null	!	!	!	!	!	!	!	!
*	*Xij	*	*	*	*	*	*	*	*
!	!LO:MO:null:mod=-pes	!	!	!	!	!	!	!	!
2AA/	.	bi-	4F/	.	bi-	.	.	.	.
!	!LO:MO:mod=*Xij	!	!	!	!	!	!	!	!
*	*null	*	*	*	*	*	*	*	*
.	.	.	4E/	.	-lis	.	.	.	.
=11-	=11-	=11-	=11-	=11-	=11-	=11-	=11-	=11-	=11-
*	*	*	*	*	*	*lig	*	*	*
!	!LO:MO:mod=ve-	!	!	!	!	!	!	!	!
1BB-	Ve-	-lis	1D	-ci-	es	1D	-pes	-lis	.
2AA/	.	es	2E/	-pes	.	1C	.	.	.
*	*	*	*	*Xij	*	*	*	*	*
!	!	!	!	!LO:MO:mod=ve-	!	!	!	!	!
4FF/	-ſtras	Vir-	1A\	Ve-	Vir-	.	.	.	.
4GG/	.	.	.	.	.	.	.	.	.
*	*	*	*	*	*	*Xlig	*	*	*
=12-	=12-	=12-	=12-	=12-	=12-	=12-	=12-	=12-	=12-
*	*	*	*	*	*	*lig	*	*	*
!	!	!	!	!	!	!	!LO:MO:mod=ve-	!	!
4AA/	.	.	.	.	.	1C	Ve-	es	.
4BB-/	.	.	.	.	.	.	.	.	.
*	*ij	*	*	*	*	*	*	*	*
*custos:D	*	*	*	*	*	*	*	*	*
!	!LO:MO:mod=ve-	!	!	!	!	!	!	!	!
2C/	Ve-	.	4G/	.	-go	.	.	.	.
*	*	*	*custos:B	*	*	*	*	*	*
.	.	.	4A/	.	.	.	.	.	.
!LO:LB:g=original	!	!	!LO:LB:g=original	!	!	!	!	!	!
2D/	.	.	4B-\	.	Ma-	1BB-	.	.	.
.	.	.	4c\	.	.	.	.	.	.
1F\	.	.	2.d\	.	.	.	.	.	.
*	*	*	*	*	*	*Xlig	*	*	*
=13-	=13-	=13-	=13-	=13-	=13-	=13-	=13-	=13-	=13-
*	*	*	*	*	*	*lig	*	*	*
.	.	.	.	.	.	1C	.	Vir-	.
.	.	.	4c\	.	.	.	.	.	.
2E\	.	.	1c	.	.	.	.	.	.
1F	ſtras	go	.	.	.	1D	.	.	.
!	!	!	!LO:SIC:s=2Bi	!	!	!	!	!	!
.	.	.	2B-\	.	-ri-	.	.	.	.
*	*	*	*	*	*	*Xlig	*	*	*
=14-	=14-	=14-	=14-	=14-	=14-	=14-	=14-	=14-	=14-
*	*	*	*	*	*	*lig	*	*	*
!	!LO:MO:mod=ve-	!	!	!	!	!	!	!	!
1G	Ve-	Ma-	1c	-ſtras	-a	1C	.	-go	.
*	*	*	*	*ij	*	*	*	*	*
!	!	!	!	!LO:MO:mod=ve-	!	!	!	!	!
4F\	.	.	2A/	Ve-	Ma-	1D	.	.	.
4E\	.	.	.	.	.	.	.	.	.
4D/	.	.	1B-\	.	-ri-	.	.	.	.
4C/	.	.	.	.	.	.	.	.	.
*	*	*	*	*	*	*Xlig	*	*	*
=15-	=15-	=15-	=15-	=15-	=15-	=15-	=15-	=15-	=15-
*	*	*	*	*	*	*lig	*	*	*
1BB-	.	.	.	.	.	1D	-ſtras	Ma-	.
.	.	.	4A/	.	.	.	.	.	.
.	.	.	4G/	.	.	.	.	.	.
1FF	ſtras	.	1A	-ſtras	-a	1F	.	.	.
*	*	*	*	*Xij	*	*Xlig	*	*	*
=16-	=16-	=16-	=16-	=16-	=16-	=16-	=16-	=16-	=16-
*	*	*	*	*	*	*lig	*	*	*
!	!LO:MO:mod=ve-	!	!	!	!	!	!	!	!
1C	Ve-	.	0r	.	.	1G	.	.	.
*	*	*	*	*	*	*custos:D	*	*	*
2D/	.	.	.	.	.	1F	.	.	.
1BB-/	.	.	.	.	.	.	.	.	.
*	*	*	*	*	*	*Xlig	*	*	*
!	!	!	!	!	!	!LO:LB:g=original	!	!	!
=17-	=17-	=17-	=17-	=17-	=17-	=17-	=17-	=17-	=17-
.	.	.	2r	.	.	1D	.	-ri-	.
2GG/	.	.	2d\	et	quae	.	.	.	.
*	*	*	*	*	*	*lig	*	*	*
1D	.	-ri-	2d\	e-	si-	1F	.	-a	.
.	.	.	2d\	-le-	-ne	.	.	.	.
=18-	=18-	=18-	=18-	=18-	=18-	=18-	=18-	=18-	=18-
!	!	!	!	!LO:MO:mod=-va-	!	!	!	!	!
1GG	-ſtras	-a,	2B-\	-ua-	ta-	1D,<	.	.	.
.	.	.	2B-\	-mi-	.	.	.	.	.
*	*Xij	*	*	*	*	*Xlig	*	*	*
*	*	*	*custos:B	*	*	*	*	*	*
2r	.	.	0A	-ni	-ctu	1F	et	quae	.
2D/	et	quae	.	.	.	.	.	.	.
=19-	=19-	=19-	=19-	=19-	=19-	=19-	=19-	=19-	=19-
2D/	e-	si-	.	.	.	1F	e-	si-	.
*custos:BB	*	*	*	*	*	*	*	*	*
2D/	-le-	-ne	.	.	.	.	.	.	.
!LO:PB:g=original	!	!	!LO:LB:g=original	!	!	!	!	!	!
*	*	*	*	*ij	*	*lig	*	*	*
!	!LO:MO:mod=-va-	!	!	!	!	!	!	!	!
2BB-/	-ua-	ta-	2.B-\	et	pu-	1F	-le-	-ne	.
2BB-/	-mi-	-ctu	.	.	.	.	.	.	.
.	.	.	4c\	.	.	.	.	.	.
=20-	=20-	=20-	=20-	=20-	=20-	=20-	=20-	=20-	=20-
1GG	-ni	pu-	2.d\	e-	-do-	1G	.	.	.
.	.	.	8c\L	.	.	.	.	.	.
!	!	!	!LO:SIC:s=8BiJ	!	!	!	!	!	!
.	.	.	8B-\J	.	.	.	.	.	.
*	*	*	*	*	*	*Xlig	*	*	*
*	*	*	*	*	*	*lig	*	*	*
!	!	!	!	!	!	!	!LO:MO:mod=-va-	!	!
0C	por-	-do-	2.c\	-le-	.	1G	-ua-	ta-	.
!	!	!	!LO:SIC:s=8B-iL	!	!	!	!	!	!
.	.	.	8B-\L	.	.	.	.	.	.
.	.	.	8A\J	.	.	.	.	.	.
=21-	=21-	=21-	=21-	=21-	=21-	=21-	=21-	=21-	=21-
!	!	!	!	!LO:MO:mod=-va-	!	!	!	!	!
.	.	.	2G/	-ua-	.	1E	.	.	.
.	.	.	2.A/	-mi-	.	.	.	.	.
*	*	*	*	*	*	*Xlig	*	*	*
*	*	*	*	*	*	*lig	*	*	*
1FF	-tae	-ris	.	.	.	1F	.	.	.
.	.	.	4B-\	.	.	.	.	.	.
.	.	.	1c\	-ni	.	.	.	.	.
=22-	=22-	=22-	=22-	=22-	=22-	=22-	=22-	=22-	=22-
2r	.	.	.	.	.	1D	.	.	.
!	!	!	!LO:SIC:s=2Bi	!	!	!	!	!	!
2F\	et	quae	2B-\	et	.	.	.	.	.
*	*	*	*	*	*	*Xlig	*	*	*
*	*	*	*	*	*	*lig	*	*	*
1G	e-	si-	1c	e-	-ris	1C	-mi-	-ctu	.
=23-	=23-	=23-	=23-	=23-	=23-	=23-	=23-	=23-	=23-
1GG	-le-	-ne	1.B-	-le-	quae	1D	.	.	.
*	*	*	*	*	*	*Xlig	*	*	*
!	!LO:MO:mod=-va-	!	!	!	!	!	!	!	!
2.BB-/	-ua-	ta-	.	.	.	1D,<	-ni	.	.
.	.	.	4A/	.	.	.	.	.	.
4C/	-mi-	.	4G/	.	.	.	.	.	.
=24-	=24-	=24-	=24-	=24-	=24-	=24-	=24-	=24-	=24-
*	*	*	*	*	*	*lig	*	*	*
!	!	!	!	!LO:MO:mod=-va-	!	!	!	!	!
1D	-ni	.	2F/	-ua-	si-	1F	por-	pu-	.
.	.	.	2D/	-mi-	-ne	.	.	.	.
2.F\	por-	.	2A,</	-ni	ta-	1D	.	-do-	.
*	*	*	*	*Xij	*	*	*	*	*
.	.	.	1A\	por-	-ctu	.	.	.	.
4E\	.	.	.	.	.	.	.	.	.
*	*	*	*	*	*	*Xlig	*	*	*
=25-	=25-	=25-	=25-	=25-	=25-	=25-	=25-	=25-	=25-
*	*	*	*	*	*	*lig	*	*	*
1D	.	.	.	.	.	1F	.	.	.
*	*	*	*custos:c	*	*	*	*	*	*
.	.	.	2B-\	.	pu-	.	.	.	.
*	*	*	*	*	*	*custos:D	*	*	*
!	!	!	!LO:LB:g=original	!	!	!	!	!	!
1C,<	-tae	.	1c	.	-do-	1G	.	.	.
*	*	*	*	*	*	*Xlig	*	*	*
!	!	!	!	!	!	!LO:PB:g=original	!	!	!
=26-	=26-	=26-	=26-	=26-	=26-	=26-	=26-	=26-	=26-
*	*	*	*	*	*	*lig	*	*	*
2D,</	ae-	.	2A/	.	.	1D	.	.	.
*custos:E	*	*	*	*	*	*	*	*	*
2F\	-ter-	.	1B-	.	.	.	.	.	.
!LO:LB:g=original	!	!	!	!	!	!	!	!	!
!LO:TX:t=P:problem=niepotrzebnie powtórzona sylaba "ter"	!	!	!	!	!	!	!	!	!
1E	na-	.	.	.	.	1G	.	.	.
.	.	.	4A/	.	.	.	.	.	.
.	.	.	4G/	.	.	.	.	.	.
*	*	*	*	*	*	*Xlig	*	*	*
=27-	=27-	=27-	=27-	=27-	=27-	=27-	=27-	=27-	=27-
0D	-les	.	2.F/	.	.	1A	.	.	.
.	.	.	4G/	.	.	.	.	.	.
*	*	*	*	*	*	*lig	*	*	*
.	.	.	2A/	.	.	1F	-tae	.	.
.	.	.	1B-\	.	.	.	.	.	.
=28-	=28-	=28-	=28-	=28-	=28-	=28-	=28-	=28-	=28-
*	*ij	*	*	*	*	*	*	*	*
2GG/	ae-	-ctu	.	.	.	1D	.	.	.
2BB-/	-ter-	pu-	2G/	.	.	.	.	.	.
*	*	*	*	*	*	*Xlig	*	*	*
*	*	*	*	*	*	*lig	*	*	*
1FF	-na-	-do-	1A	.	.	1F	.	.	.
=29-	=29-	=29-	=29-	=29-	=29-	=29-	=29-	=29-	=29-
!	!	!	!	!LO:MO:mod=-tae	!	!	!	!	!
1GG	-les	-ris	1G	-ta	-ris	1D	.	.	.
*	*Xij	*	*	*	*	*Xlig	*	*	*
2r	.	.	1G	ae-	quae	1C	.	-ris	.
2C/	ae-	quae	.	.	.	.	.	.	.
=30-	=30-	=30-	=30-	=30-	=30-	=30-	=30-	=30-	=30-
2AA/	-ter-	si-	2A/	-ter-	si-	1C	ae-	si-	.
1C	-na-	-ne	4G/	.	.	.	.	.	.
.	.	.	4F/	.	.	.	.	.	.
*	*	*	*	*	*	*lig	*	*	*
.	.	.	2.E/	na-	.	1C	-ter-	-ne	.
4BB-/	.	.	.	.	.	.	.	.	.
4AA/	.	.	4F/	.	.	.	.	.	.
=31-	=31-	=31-	=31-	=31-	=31-	=31-	=31-	=31-	=31-
2GG/	.	.	4G/	.	.	1BB-	.	.	.
.	.	.	4D/	.	-ne	.	.	.	.
2BB-/	.	.	1G	.	ta-	.	.	.	.
*	*	*	*	*	*	*Xlig	*	*	*
1AA	.	ta-	.	.	.	1C	.	ta-	.
*	*	*	*custos:G	*	*	*	*	*	*
!	!	!	!LO:SIC:s=2F#i	!	!	!	!	!	!
.	.	.	2F/	.	.	.	.	.	.
!	!	!	!LO:LB:g=original	!	!	!	!	!	!
=32-	=32-	=32-	=32-	=32-	=32-	=32-	=32-	=32-	=32-
*	*	*	*	*	*	*lig	*	*	*
1GG	-les	-ctu	0G	les	-ctus	1D	-na-	-ctu	.
2r	.	.	.	.	.	1C	.	.	.
2C/	ae-	quae	.	.	.	.	.	.	.
*	*	*	*	*	*	*Xlig	*	*	*
=33-	=33-	=33-	=33-	=33-	=33-	=33-	=33-	=33-	=33-
2BB-/	-ter-	si-	2r	.	.	1D	.	pu-	.
2GG/	-na-	-ne	2B-\	por-	pu-	.	.	.	.
*custos:FF	*	*	*	*	*	*	*	*	*
*	*	*	*	*	*	*lig	*	*	*
1BB-	.	ta-	1B-	-tae	-do-	1D	-les	-do-	.
!LO:LB:g=original	!	!	!	!	!	!	!	!	!
=34-	=34-	=34-	=34-	=34-	=34-	=34-	=34-	=34-	=34-
2FF/	-les	-ctu	2.A/	ae-	.	1F	.	.	.
*	*ij	*	*	*	*	*	*	*	*
1F	ae-	pu-	.	.	.	.	.	.	.
.	.	.	4B-\	.	.	.	.	.	.
*	*	*	*	*	*	*Xlig	*	*	*
.	.	.	2c\	.	.	1G	.	.	.
2E\	-ter-	.	2C/	.	.	.	.	.	.
=35-	=35-	=35-	=35-	=35-	=35-	=35-	=35-	=35-	=35-
*	*	*	*	*	*	*custos:D	*	*	*
2.D/	-na-	do-	2.F/	-ter-	.	0F	.	.	.
4C/	.	.	4E/	.	.	.	.	.	.
2BB-/	.	.	2D/	.	.	.	.	.	.
2AA/	.	.	2C/	.	.	.	.	.	.
!	!	!	!	!	!	!LO:LB:g=original	!	!	!
=36-	=36-	=36-	=36-	=36-	=36-	=36-	=36-	=36-	=36-
1GG	.	.	2G/	.	.	1D	.	-ris	.
.	.	.	2B-\	-na-	.	.	.	.	.
*	*	*	*	*	*	*lig	*	*	*
1FF	-les	-ris	0A	-les	-ris	1F	.	.	.
*	*Xij	*	*	*	*	*	*	*	*
=37-	=37-	=37-	=37-	=37-	=37-	=37-	=37-	=37-	=37-
1r	.	.	.	.	.	1D,<	.	.	.
*	*	*	*	*	*	*Xlig	*	*	*
2r	.	.	2r	.	.	1F	et	in-	.
2FF/	et	in-	2c\	et	in-	.	.	.	.
=38-	=38-	=38-	=38-	=38-	=38-	=38-	=38-	=38-	=38-
2BB-/	in-	-ven-	2d\	in-	-ven-	1F	in-	-ven-	.
*	*	*	*custos:B	*	*	*	*	*	*
2AA/	-tro-	.	2c\	-tro-	-ta	.	.	.	.
!	!	!	!LO:LB:g=original	!	!	!	!	!	!
2BB-/	-i-	-ta	2B-\	-i-	es	1F	-tro-	-ta	.
!	!	!	!	!	!LO:MO:mod=ma-	!	!	!	!
2C/	.	.	1A\	-bit	Ma-	.	.	.	.
=39-	=39-	=39-	=39-	=39-	=39-	=39-	=39-	=39-	=39-
*	*	*	*	*ij	*	*lig	*	*	*
1D	.	.	.	.	.	1F	-i-	.	.
.	.	.	2F/	et	.	.	.	.	.
2.C/	.	.	2G/	in-	-ter	1E	.	.	.
.	.	.	2C/	-tro-	Sal-	.	.	.	.
8BB-/L	.	.	.	.	.	.	.	.	.
8AA/J	.	.	.	.	.	.	.	.	.
*	*	*	*	*	*	*Xlig	*	*	*
=40-	=40-	=40-	=40-	=40-	=40-	=40-	=40-	=40-	=40-
*	*	*	*	*	*	*lig	*	*	*
1GG	.	.	2.D/	-i-	-va-	1G	.	.	.
.	.	.	4E/	.	.	.	.	.	.
*custos:AA	*	*	*	*	*	*	*	*	*
0D	-bit	es	2.F/	-bit	-to-	1A	.	.	.
.	.	.	4G/	.	.	.	.	.	.
*	*	*	*	*	*	*Xlig	*	*	*
=41-	=41-	=41-	=41-	=41-	=41-	=41-	=41-	=41-	=41-
.	.	.	2.A/	.	.	1F	.	.	.
.	.	.	8G/L	.	.	.	.	.	.
.	.	.	8F/J	.	.	.	.	.	.
!LO:LB:g=original	!	!	!	!	!	!	!	!	!
2r	.	.	2G/	.	.	1E	.	.	.
2AA/	et	in-	2A/	et	.	.	.	.	.
=42-	=42-	=42-	=42-	=42-	=42-	=42-	=42-	=42-	=42-
2BB-/	in-	-ven-	2F/	in-	.	1D	.	.	.
!	!	!LO:MO:mod=.	!	!	!	!	!	!	!
2GG/	-tro-	-ta	2G/	-tro-	.	.	.	.	.
*	*	*	*	*	*	*lig	*	*	*
!	!	!LO:MO:mod=-ta	!	!	!	!	!	!	!
2.BB-/	-i-	es	2F/	-i-	.	1D	-bit	.	.
.	.	.	2B-\	.	.	.	.	.	.
4C/	.	.	.	.	.	.	.	.	.
=43-	=43-	=43-	=43-	=43-	=43-	=43-	=43-	=43-	=43-
*	*	*	*custos:F	*	*	*	*	*	*
1D	.	.	0A	-bit	-ris	1F	.	.	.
*	*	*	*	*Xij	*	*Xlig	*	*	*
1AA	.	.	.	.	.	1E	.	.	.
!	!	!	!LO:PB:g=original	!	!	!	!	!	!
=44-	=44-	=44-	=44-	=44-	=44-	=44-	=44-	=44-	=44-
*	*	*	*	*	*	*lig	*	*	*
1BB-	.	.	2F/	et	in-	1D	.	.	.
.	.	.	2B-\	in-	-ven-	.	.	.	.
!	!	!LO:MO:null:mod=es	!	!	!	!	!	!	!
1FF	-bit	.	2A/	-tro-	-ta	1F	.	.	.
.	.	.	2.F/	-i-	es	.	.	.	.
*	*	*	*	*	*	*Xlig	*	*	*
=45-	=45-	=45-	=45-	=45-	=45-	=45-	=45-	=45-	=45-
*	*	*	*	*	*	*lig	*	*	*
2r	.	.	.	.	.	1C	.	es	.
.	.	.	4G/	.	.	.	.	.	.
*	*ij	*	*	*	*	*	*	*	*
2FF/	et	in-	2A/	.	.	.	.	.	.
*	*	*	*	*	*	*custos:BB	*	*	*
!	!	!	!	!	!	!LO:SIC:s=1BB-	!	!	!
2BB-/	in-	-ven-	2F/	-bit	.	1BB-X	.	.	.
*	*	*	*	*ij	*	*	*	*	*
!	!	!	!	!	!LO:MO:mod=ma-	!	!	!	!
1D\	-tro-	.	2.B-\	et	Ma-	.	.	.	.
*	*	*	*	*	*	*Xlig	*	*	*
!	!	!	!	!	!	!LO:LB:g=original	!	!	!
=46-	=46-	=46-	=46-	=46-	=46-	=46-	=46-	=46-	=46-
*	*	*	*	*	*	*lig	*	*	*
!	!	!	!	!	!	!	!	!LO:MO:mod=ma-	!
.	.	.	.	.	.	1BB-	Rex	Ma-	.
.	.	.	4A/	in-	.	.	.	.	.
4C/	.	.	1G	-tro-	.	.	.	.	.
4BB-/	.	.	.	.	.	.	.	.	.
1AA	-i-	.	.	.	.	1C	.	.	.
!	!	!	!LO:SIC:s=2F#i	!	!	!	!	!	!
.	.	.	2F/	-i-	.	.	.	.	.
*	*	*	*	*	*	*Xlig	*	*	*
=47-	=47-	=47-	=47-	=47-	=47-	=47-	=47-	=47-	=47-
*	*	*	*	*	*	*lig	*	*	*
1GG	bit	-ta	1G,<	-bit	-ter	1D	.	-ter	.
*	*Xij	*	*	*Xij	*	*	*	*	*
!	!	!	!	!	!LO:MO:mod=ma-	!	!	!	!
2FF/	Rex	es	1A	Rex	Ma-	1F	.	.	.
!	!	!LO:MO:mod=ma-	!	!	!	!	!	!	!
1F\	glo-	Ma-	.	.	.	.	.	.	.
*	*	*	*	*	*	*Xlig	*	*	*
=48-	=48-	=48-	=48-	=48-	=48-	=48-	=48-	=48-	=48-
*	*	*	*	*	*	*lig	*	*	*
.	.	.	1G	glo-	.	1C	glo-	Sal-	.
2E\	-ri-	.	.	.	.	.	.	.	.
*custos:D	*	*	*	*	*	*	*	*	*
1F	-ae	-ter	2F/	-ri-	-ter	1D	.	.	.
.	.	.	1D/	-ae	Sal-	.	.	.	.
*	*	*	*	*	*	*Xlig	*	*	*
!LO:LB:g=original	!	!	!	!	!	!	!	!	!
=49-	=49-	=49-	=49-	=49-	=49-	=49-	=49-	=49-	=49-
*	*	*	*	*ij	*	*lig	*	*	*
2r	.	.	.	.	.	1F	-ri-	-va-	.
2D/	Rex	Sal-	1A	Rex	-va-	.	.	.	.
2.F\	glo-	-va-	.	.	.	1D	.	.	.
.	.	.	2F/	glo-	-to-	.	.	.	.
4E\	.	.	.	.	.	.	.	.	.
*	*	*	*	*	*	*Xlig	*	*	*
=50-	=50-	=50-	=50-	=50-	=50-	=50-	=50-	=50-	=50-
*	*	*	*	*	*	*lig	*	*	*
1D	.	.	2A/	.	.	1F	.	.	.
*	*	*	*custos:c	*	*	*	*	*	*
.	.	.	2B-\	.	.	.	.	.	.
!	!	!	!LO:LB:g=original	!	!	!	!	!	!
2C/	.	.	2c\	.	.	1G	.	.	.
!LO:SIC:s=2BBi	!	!	!	!	!	!	!	!	!
2BB-/	-ri-	-to-	2d\	-ri-	.	.	.	.	.
*	*	*	*	*	*	*Xlig	*	*	*
=51-	=51-	=51-	=51-	=51-	=51-	=51-	=51-	=51-	=51-
*	*	*	*	*	*	*lig	*	*	*
1C	-ae	-ris	1c	-ae	-ris	1G	.	-to-	.
2r	.	.	2r	.	.	1F	.	.	.
*	*ij	*	*	*	*	*	*	*	*
!	!	!LO:MO:mod=ma-	!	!	!	!	!	!	!
2D/	Rex	Ma-	2B-\	Rex	Sal-	.	.	.	.
*	*	*	*	*	*	*Xlig	*	*	*
=52-	=52-	=52-	=52-	=52-	=52-	=52-	=52-	=52-	=52-
*	*	*	*	*	*	*lig	*	*	*
2C/	glo-	ter	2c\	glo-	-va-	1G	.	.	.
2BB-/	.	.	2d\	-ri-	-to-	.	.	.	.
!	!	!	!LO:SIC:s=[1c	!LO:MO:mod=-ae.	!LO:MO:mod=-ris.	!	!	!	!
2AA/	.	Sal-	[1cl	-ae	-ris	1A	.	.	.
2FF/	.	-va-	.	.	.	.	.	.	.
*	*	*	*	*Xij	*	*Xlig	*	*	*
=53-	=53-	=53-	=53-	=53-	=53-	=53-	=53-	=53-	=53-
!	!	!	!	!	!	!	!LO:MO:mod=.	!	!
1C	-ri-	-to-	0c]	.	.	1G	-ae.	.	.
!LO:MO:mod=!LO&colon;N&colon;vis=0	!	!	!	!	!	!LO:MO:mod=!LO&colon;N&colon;vis=0	!	!	!
!null	!LO:MO:mod=-ae.	!LO:MO:mod=-ris.	!	!	!	!null	!	!	!
!	!	!	!	!	!	!LO:MO:mod=1F	!LO:MO:null:mod=-ae.	!	!
1FF	-ae	-ris	.	.	.	1Fl	.	-ris.	.
*	*Xij	*	*	*	*	*	*	*	*
!LO:LB:g=original	!	!	!	!	!	!LO:LB:g=original	!	!	!
=54||	=54||	=54||	=54||	=54||	=54||	=54||	=54||	=54||	=54||
*M2/1	*	*	*M2/1	*	*	*M2/1	*	*	*
*met(C|)	*	*	*met(C|)	*	*	*met(C|)	*	*	*
*mmet(c|)	*	*	*mmet(c|)	*	*	*mmet(c|)	*	*	*
1D	Quis	Vir-	1A	Quis	Vir-	1D	Quis	Vir-	.
*	*	*	*	*	*	*lig	*	*	*
2.F\	a-	-go	1.A	a-	-go	1D	a-	-go	.
4E\	.	.	.	.	.	.	.	.	.
=55-	=55-	=55-	=55-	=55-	=55-	=55-	=55-	=55-	=55-
2D/	.	De-	.	.	.	1F	.	.	.
2BB-/	.	.	2B-\	.	De-	.	.	.	.
*	*	*	*	*	*	*Xlig	*	*	*
1C	-ſcen-	.	1G	-ſcen-	-i	1E	.	.	.
=56-	=56-	=56-	=56-	=56-	=56-	=56-	=56-	=56-	=56-
*	*	*	*	*	*	*lig	*	*	*
!	!	!	!	!	!LO:MO:mod=Ge-	!	!	!	!
2FF/	-det	-i	2A/	-det	ge-	1F	-scen-	.	.
!	!	!LO:MO:mod=Ge-	!	!	!	!	!	!	!
2BB-/	in	ge-	2F/	in	.	.	.	.	.
2.GG/	mon-	.	2.B-\	mon-	.	1G	.	.	.
4AA/	.	.	4A/	.	.	.	.	.	.
*	*	*	*	*	*	*Xlig	*	*	*
=57-	=57-	=57-	=57-	=57-	=57-	=57-	=57-	=57-	=57-
2BB-/	.	.	4G/	.	.	1G,<	-det	De-	.
.	.	.	4F/	.	.	.	.	.	.
!	!	!	!LO:SIC:s=4E-i	!	!	!	!	!	!
1C	.	.	4E/	.	.	.	.	.	.
*	*	*	*custos:C	*	*	*	*	*	*
.	.	.	4D/	.	.	.	.	.	.
!	!	!	!LO:LB:g=original	!	!	!	!	!	!
.	.	.	2C/	.	.	1G,<	in	-i	.
!LO:SIC:s=2BBi	!	!	!	!	!	!	!	!	!
2BB-/	.	.	2D/	.	.	.	.	.	.
=58-	=58-	=58-	=58-	=58-	=58-	=58-	=58-	=58-	=58-
!	!	!	!LO:SIC:s=1E-i	!	!	!	!	!LO:MO:mod=Ge-	!
1C	.	-ni-	1E	.	.	1G	mon-	ge-	.
1GG	-tem	-trix	1D	.	.	1G,<	-tem	-ni-	.
=59-	=59-	=59-	=59-	=59-	=59-	=59-	=59-	=59-	=59-
*	*	*	*	*	*	*lig	*	*	*
2r	.	.	2C/	-tem	.	1G	Do-	-trix	.
*custos:D	*	*	*	*	*	*	*	*	*
2C/	Do-	Vir-	2E/	Do-	.	.	.	.	.
!LO:PB:g=original	!	!	!	!	!	!	!	!	!
2D/	.	-go	2F/	.	.	1F	.	.	.
1F\	.	De-	2D/	-mi-	-ni-	.	.	.	.
*	*	*	*	*	*	*Xlig	*	*	*
=60-	=60-	=60-	=60-	=60-	=60-	=60-	=60-	=60-	=60-
*	*	*	*	*	*	*lig	*	*	*
.	.	.	1C	-ni	-trix	1G	.	.	.
2E\	.	.	.	.	.	.	.	.	.
2D/	.	.	2r	.	.	1A	.	.	.
2C/	.	.	2c\	in	Vir-	.	.	.	.
*	*	*	*	*	*	*Xlig	*	*	*
=61-	=61-	=61-	=61-	=61-	=61-	=61-	=61-	=61-	=61-
*	*	*	*	*	*	*lig	*	*	*
1BB-	.	.	1d	mon-	-go	1B-	.	.	.
1C	.	i	2.c\	.	De-	1G	.	.	.
.	.	.	4B-\	.	.	.	.	.	.
*	*	*	*	*	*	*Xlig	*	*	*
=62-	=62-	=62-	=62-	=62-	=62-	=62-	=62-	=62-	=62-
!	!	!LO:MO:mod=Ge-	!	!	!	!	!	!	!
2.D/	.	ge-	2A/	-tem	.	1F	.	.	.
.	.	.	2.D/	Do-	.	.	.	.	.
4C/	.	.	.	.	.	.	.	.	.
*	*	*	*	*	*	*lig	*	*	*
2BB-/	.	.	.	.	.	1F	mi-	.	.
.	.	.	4E/	.	.	.	.	.	.
2AA/	.	.	1F/	.	.	.	.	.	.
=63-	=63-	=63-	=63-	=63-	=63-	=63-	=63-	=63-	=63-
1GG	-mi-	ni-	.	.	.	1G	.	.	.
.	.	.	2E/	-mi-	.	.	.	.	.
*	*	*	*	*	*	*Xlig	*	*	*
*	*	*	*	*	*	*custos:G	*	*	*
2FF/	-ni	-trix	1F	-ni	-i	1A	.	.	.
1F\	Do-	De-	.	.	.	.	.	.	.
!	!	!	!	!	!	!LO:LB:g=original	!	!	!
=64-	=64-	=64-	=64-	=64-	=64-	=64-	=64-	=64-	=64-
*	*	*	*	*	*	*lig	*	*	*
.	.	.	2r	.	.	1G	.	.	.
*	*	*	*custos:F	*	*	*	*	*	*
!	!	!	!	!	!LO:MO:mod=Ge-	!	!	!	!
2E\	.	-i	2C/	in	ge-	.	.	.	.
!	!	!LO:MO:mod=Ge-	!LO:LB:g=original	!	!	!	!	!	!
2.F\	.	ge-	2F/	.	.	1A	.	.	.
.	.	.	1D/	mon-	.	.	.	.	.
4E\	.	.	.	.	.	.	.	.	.
*	*	*	*	*	*	*Xlig	*	*	*
=65-	=65-	=65-	=65-	=65-	=65-	=65-	=65-	=65-	=65-
*	*	*	*	*	*	*lig	*	*	*
2D/	.	.	.	.	.	1A	.	.	.
*custos:BB	*	*	*	*	*	*	*	*	*
2C/	.	.	2E/	-tem	.	.	.	.	.
!LO:LB:g=original	!	!	!	!	!	!	!	!	!
2BB-/	.	.	2F/	.	.	1B-	.	.	.
2GG/	-mi-	ni-	2G/	Do-	.	.	.	.	.
*	*	*	*	*	*	*Xlig	*	*	*
=66-	=66-	=66-	=66-	=66-	=66-	=66-	=66-	=66-	=66-
*	*	*	*	*	*	*lig	*	*	*
1AA	-ni	-trix	1E	-mi-	ni-	1A	.	.	.
2r	.	.	1D	-ni	-trix	1F	.	.	.
2D/	in	quem	.	.	.	.	.	.	.
*	*	*	*	*	*	*Xlig	*	*	*
=67-	=67-	=67-	=67-	=67-	=67-	=67-	=67-	=67-	=67-
*	*	*	*	*ij	*	*lig	*	*	*
2C/	mon-	to-	2r	.	.	1A	.	.	.
!	!	!LO:MO:mod=-tus	!	!	!	!	!	!	!
2AA/	-tem	-t(us)	2E/	in	Vir-	.	.	.	.
2.C/	Do-	non	2E/	mon-	-go	1G	.	.	.
.	.	.	2.G/	-tem	De-	.	.	.	.
4BB-/	.	.	.	.	.	.	.	.	.
*	*	*	*	*	*	*Xlig	*	*	*
=68-	=68-	=68-	=68-	=68-	=68-	=68-	=68-	=68-	=68-
*	*	*	*	*	*	*lig	*	*	*
4GG/	.	ca-	.	.	.	1B-	.	.	.
4AA/	.	.	4F/	.	.	.	.	.	.
4BB-/	.	.	4D/	Do-	.	.	.	.	.
4C/	.	.	4E/	.	.	.	.	.	.
4D/	.	.	4F/	.	.	1A	.	.	.
4E\	.	.	4G/	.	.	.	.	.	.
2F\	.	.	4A/	.	.	.	.	.	.
.	.	.	4B-\	.	-i	.	.	.	.
*	*	*	*	*	*	*Xlig	*	*	*
=69-	=69-	=69-	=69-	=69-	=69-	=69-	=69-	=69-	=69-
!	!	!	!	!	!LO:MO:mod=Ge-	!	!	!	!
4C/	.	.	1c	.	ge-	1G,<	ni	.	.
4D/	.	.	.	.	.	.	.	.	.
4E\	.	.	.	.	.	.	.	.	.
4F\	.	.	.	.	.	.	.	.	.
!	!	!	!	!LO:MO:mod=.	!	!	!	!	!
2G\	.	.	2B-\	-mi-	-ni-	1G	aut	quem	.
*custos:BB	*	*	*	*	*	*	*	*	*
!	!	!	!	!LO:MO:mod=-mi-	!LO:MO:mod=-trix	!	!	!	!
2C/	-mi-	.	2c,<\	-ni	-trix,	.	.	.	.
!	!	!	!	!LO:MO:mod=*null:null	!	!	!	!	!
*	*	*	*	*Xij	*	*	*	*	*
!LO:LB:g=original	!	!	!	!	!	!	!	!	!
=70-	=70-	=70-	=70-	=70-	=70-	=70-	=70-	=70-	=70-
*	*	*	*	*	*	*lig	*	*	*
!	!	!	!	!LO:MO:mod=-ni	!	!	!	!	!
2BB-/	-ni	-pit	2F/	aut	quem	1B-	quis	to-	.
!	!	!	!	!LO:MO:mod=*Xij	!	!	!	!	!
*	*	*	*	*null	*	*	*	*	*
!	!	!	!	!LO:MO:null:mod=aut	!	!	!	!	!
2.GG/	aut	or-	2.B-\	.	to-	.	.	.	.
.	.	.	.	.	.	1G	.	.	.
4AA/	.	.	4A/	.	.	.	.	.	.
!	!	!	!	!	!LO:MO:mod=-tus	!	!	!	!
2BB-/	.	.	1G/	quis	-t(us)	.	.	.	.
*	*	*	*	*	*	*Xlig	*	*	*
=71-	=71-	=71-	=71-	=71-	=71-	=71-	=71-	=71-	=71-
*	*	*	*	*	*	*lig	*	*	*
1AA	quis	-bis	.	.	.	1A	.	.	.
*	*	*	*custos:G	*	*	*	*	*	*
!	!	!	!LO:SIC:s=2F#i	!	!	!	!	!	!
.	.	.	2F/	.	.	.	.	.	.
*	*ij	*	*	*ij	*	*	*	*	*
!	!	!LO:MO:mod=non	!LO:LB:g=original	!	!	!	!	!	!
2GG/	aut	n(on)	2G/	aut	non	1B-	.	.	.
2BB-/	.	ca-	2D/	.	ca-	.	.	.	.
*	*	*	*	*	*	*Xlig	*	*	*
=72-	=72-	=72-	=72-	=72-	=72-	=72-	=72-	=72-	=72-
*	*	*	*	*	*	*lig	*	*	*
2C/	.	-pit	2E/	.	-pit	1A	.	tus	.
!	!	!	!LO:SIC:s=2F#i	!	!	!	!	!	!
2D/	.	or-	2F/	.	or-	.	.	.	.
0.GG	quis	-bis	0D	quis	-bis	1G,<	.	.	.
*	*Xij	*	*	*Xij	*	*Xlig	*	*	*
=73-	=73-	=73-	=73-	=73-	=73-	=73-	=73-	=73-	=73-
!	!	!	!	!	!	!	!LO:MO:mod=sta-	!	!
.	.	.	.	.	.	1G	Sta-	non	.
.	.	.	2r	.	.	1G,<	-bit	ca-	.
!	!	!	!	!LO:MO:mod=sta-	!	!	!	!	!
.	.	.	1d\	Sta-	in	.	.	.	.
=74-	=74-	=74-	=74-	=74-	=74-	=74-	=74-	=74-	=74-
*	*	*	*	*	*	*custos:G	*	*	*
2r	.	.	.	.	.	1G	in	-pit	.
!	!LO:MO:mod=sta-	!	!	!	!	!	!	!	!
1G	Sta-	in	2d\	-bit	tu-	.	.	.	.
!	!	!	!	!	!	!LO:LB:g=original	!	!	!
.	.	.	2B-\	in	-a	1G	lo-	non	.
2G\	-bit	tu-	2B-\	lo-	se	.	.	.	.
=75-	=75-	=75-	=75-	=75-	=75-	=75-	=75-	=75-	=75-
2E\	in	-a	2G/	-co	clau-	1G,<	-co	ca-	.
*	*	*	*	*ij	*	*	*	*	*
!	!	!	!	!LO:MO:mod=sta-	!	!	!	!	!
2E\	lo-	se	1G	Sta-	-sit	.	.	.	.
!	!	!	!	!	!	!	!LO:MO:mod=san-	!	!
2C/	-co	clau-	.	.	.	1G	San-	-pit	.
!	!LO:MO:mod=sta-	!LO:MO:mod=-sit	!	!	!	!	!	!	!
1C/	Sta-	-sit,	2G/	-bit	in	.	.	.	.
=76-	=76-	=76-	=76-	=76-	=76-	=76-	=76-	=76-	=76-
*	*	*	*	*	*	*lig	*	*	*
.	.	.	2E/	in	tu-	1G	-cto	or-	.
2C/	-bit	in	2E/	lo-	-a	.	.	.	.
2AA/	in	tua	2C/	-co	se	1A,<	.	.	.
*	*	*	*	*Xij	*	*	*	*	*
*custos:FF	*	*	*	*	*	*	*	*	*
!	!	!	!	!LO:MO:mod=sta-	!	!	!	!	!
2AA/	lo-	se-	1c\	Sta-	clau-	.	.	.	.
*	*	*	*	*	*	*Xlig	*	*	*
!LO:LB:g=original	!	!	!	!	!	!	!	!	!
=77-	=77-	=77-	=77-	=77-	=77-	=77-	=77-	=77-	=77-
*	*	*	*	*	*	*lig	*	*	*
2FF/	-co	clau-	.	.	.	1A	e-	.	.
2.F\	San-	.	2c\	-bit	-sit	.	.	.	.
.	.	.	2A/	in	vi-	1F	.	.	.
4E\	.	.	.	.	.	.	.	.	.
4D/	.	.	2A/	lo-	-sce-	.	.	.	.
4C/	.	.	.	.	.	.	.	.	.
*	*	*	*	*	*	*Xlig	*	*	*
=78-	=78-	=78-	=78-	=78-	=78-	=78-	=78-	=78-	=78-
*	*	*	*	*	*	*lig	*	*	*
*	*	*	*custos:D	*	*	*	*	*	*
1D	.	.	1F	-co	-ra	1A	.	.	.
!	!	!	!LO:LB:g=original	!	!	!	!	!	!
2.GG/	.	.	2r	.	.	1G	.	.	.
!	!	!	!	!LO:MO:mod=san-	!	!	!	!	!
.	.	.	2.D/	San-	in	.	.	.	.
4AA/	.	.	.	.	.	.	.	.	.
*	*	*	*	*	*	*Xlig	*	*	*
=79-	=79-	=79-	=79-	=79-	=79-	=79-	=79-	=79-	=79-
*	*	*	*	*	*	*lig	*	*	*
2BB-/	.	sit	.	.	.	1F	.	.	.
.	.	.	4E/	.	tu-	.	.	.	.
2AA/	-cto	vis-	2F/	.	-a	.	.	.	.
1GG	e-	-ce-	1G	.	se	1D	.	.	.
*	*	*	*	*	*	*Xlig	*	*	*
=80-	=80-	=80-	=80-	=80-	=80-	=80-	=80-	=80-	=80-
*	*	*	*	*	*	*lig	*	*	*
!	!	!LO:MO:mod=-ra	!	!	!	!	!	!	!
2FF,</	-ius	-ra,	2A/	-cto	clau-	1F	.	.	.
*	*ij	*	*	*	*	*	*	*	*
1F	Sta-	in	2F/	.	.	.	.	.	.
.	.	.	1C	e-	.	1G	.	.	.
2E\	-bit	tu-	.	.	.	.	.	.	.
*	*	*	*	*	*	*Xlig	*	*	*
=81-	=81-	=81-	=81-	=81-	=81-	=81-	=81-	=81-	=81-
2D/	in	-a	1F	-ius	-sit	1A	.	.	.
2F\	lo-	se	.	.	.	.	.	.	.
*	*	*	*	*	*	*lig	*	*	*
!	!	!	!	!LO:MO:mod=san-	!	!	!	!	!
1E	-co	clau-	2.G/	San-	vi-	1G	.	.	.
.	.	.	4A/	.	.	.	.	.	.
=82-	=82-	=82-	=82-	=82-	=82-	=82-	=82-	=82-	=82-
1D	San-	-sit	2B-\	.	.	1F	.	.	.
.	.	.	2.A/	.	.	.	.	.	.
*	*	*	*	*	*	*Xlig	*	*	*
*	*	*	*	*	*	*lig	*	*	*
1GG	-cto	vis-	.	.	.	1G	.	.	.
.	.	.	4G/	cto	.	.	.	.	.
.	.	.	1G/	e-	.	.	.	.	.
=83-	=83-	=83-	=83-	=83-	=83-	=83-	=83-	=83-	=83-
1D	e-	-ce-	.	.	.	1D	.	.	.
!	!	!	!LO:SIC:s=2F#i	!	!	!	!	!	!
.	.	.	2F/	-ius	sce-	.	.	.	.
*	*	*	*	*	*	*Xlig	*	*	*
*custos:GG	*	*	*	*	*	*custos:F	*	*	*
1GG	-ius	-ra	4G/	in-	-ra	1D,<	-ius	-bis	.
*	*Xij	*	*	*	*	*	*	*	*
.	.	.	4A/	.	.	.	.	.	.
.	.	.	4B-\	.	.	.	.	.	.
*	*	*	*custos:A	*	*	*	*	*	*
.	.	.	4G/	.	.	.	.	.	.
!LO:LB:g=original	!	!	!LO:PB:g=original	!	!	!LO:PB:g=original	!	!	!
=84-	=84-	=84-	=84-	=84-	=84-	=84-	=84-	=84-	=84-
0r	.	.	4A/	-no-	.	1F	in-	in	.
.	.	.	4B-\	.	.	.	.	.	.
.	.	.	2.c\	-cens	.	.	.	.	.
.	.	.	.	.	.	1F	-no-	tu-	.
.	.	.	4B-\	.	.	.	.	.	.
.	.	.	1B-\	.	.	.	.	.	.
=85-	=85-	=85-	=85-	=85-	=85-	=85-	=85-	=85-	=85-
*	*	*	*	*	*	*lig	*	*	*
1r	.	.	.	.	.	1F	-cens	-a	.
.	.	.	2A/	.	.	.	.	.	.
1GG	in-	fa-	2B-\	.	.	1G,<	.	.	.
.	.	.	2d\	.	.	.	.	.	.
*	*	*	*	*	*	*Xlig	*	*	*
=86-	=86-	=86-	=86-	=86-	=86-	=86-	=86-	=86-	=86-
*	*	*	*	*	*	*lig	*	*	*
!	!	!LO:MO:mod=-ctus	!	!	!	!	!	!	!
2.C/	-no-	-ct(us)	2c\	.	.	1G	ma-	se	.
.	.	.	1C	.	in	.	.	.	.
4BB-/	.	.	.	.	.	.	.	.	.
2AA/	-cens	ho-	.	.	.	1F	.	.	.
2BB-/	.	.	2D/	ma-	tu-	.	.	.	.
*	*	*	*	*	*	*Xlig	*	*	*
=87-	=87-	=87-	=87-	=87-	=87-	=87-	=87-	=87-	=87-
*	*	*	*	*	*	*lig	*	*	*
1C	ma-	.	2E/	.	-a	1E	.	clau-	.
.	.	.	1G	.	se	.	.	.	.
1AA	-ni-	.	.	.	.	1C	.	.	.
!	!	!	!LO:SIC:s=2F#i	!	!	!	!	!	!
.	.	.	2F/	-ni-	clau-	.	.	.	.
*	*	*	*	*	*	*Xlig	*	*	*
=88-	=88-	=88-	=88-	=88-	=88-	=88-	=88-	=88-	=88-
*	*	*	*	*	*	*lig	*	*	*
1GG	-bus	.	1G	-bus	-sit	1D	.	.	.
*	*ij	*	*	*	*	*	*	*	*
1FF	in	-mo	2.C/	et	clau-	1F	.	.	.
.	.	.	4D/	.	.	.	.	.	.
*	*	*	*	*	*	*Xlig	*	*	*
=89-	=89-	=89-	=89-	=89-	=89-	=89-	=89-	=89-	=89-
*	*	*	*	*	*	*lig	*	*	*
1.C	ma-	ho-	4E/	.	.	1E	.	.	.
.	.	.	4F/	.	.	.	.	.	.
*	*	*	*custos:C	*	*	*	*	*	*
.	.	.	2G/	.	.	.	.	.	.
!	!	!	!LO:LB:g=original	!	!	!	!	!	!
.	.	.	2C/	mun-	.	1G	.	.	.
2BB-/	-ni-	.	2D/	.	.	.	.	.	.
*	*	*	*	*	*	*Xlig	*	*	*
=90-	=90-	=90-	=90-	=90-	=90-	=90-	=90-	=90-	=90-
*	*	*	*	*	*	*lig	*	*	*
1AA	-bus	-mo	1E	-do	.	1A	.	.	.
*	*Xij	*	*	*	*	*	*	*	*
2r	.	.	2D/	cor-	-sit	1F	.	.	.
1D\	ma-	fa-	2.A/	-de	vi-	.	.	.	.
*	*	*	*	*	*	*Xlig	*	*	*
=91-	=91-	=91-	=91-	=91-	=91-	=91-	=91-	=91-	=91-
*	*	*	*	*	*	*lig	*	*	*
.	.	.	.	.	.	1E	.	.	.
.	.	.	4B-\	.	.	.	.	.	.
!	!	!LO:MO:mod=-ctus	!	!	!	!	!	!	!
2C/	.	-ct(us)	2c\	.	.	.	.	.	.
2D/	-ni-	ho-	2A/	.	.	1D	.	.	.
2.BB-/	-bus	.	2B-\	.	.	.	.	.	.
*	*	*	*	*	*	*Xlig	*	*	*
=92-	=92-	=92-	=92-	=92-	=92-	=92-	=92-	=92-	=92-
*	*	*	*	*ij	*	*	*	*	*
.	.	.	2F/	et	.	1D	ni-	-sit	.
4AA/	.	.	.	.	.	.	.	.	.
4GG/	.	.	2.G/	mun-	.	.	.	.	.
*custos:GG	*	*	*	*	*	*	*	*	*
4FF/	.	.	.	.	.	.	.	.	.
*	*	*	*	*	*	*lig	*	*	*
!LO:LB:g=original	!	!	!	!	!	!	!	!	!
1GG	.	-mo	.	.	.	1D	-bus	vi-	.
.	.	.	4A/	.	.	.	.	.	.
.	.	.	2B-\	-do	.	.	.	.	.
=93-	=93-	=93-	=93-	=93-	=93-	=93-	=93-	=93-	=93-
*	*	*	*	*	*	*custos:D	*	*	*
2r	.	.	4A/	.	.	1F	.	.	.
.	.	.	4G/	.	.	.	.	.	.
2FF/	in-	fa-	2A/	cor-	-sce-	.	.	.	.
*	*	*	*	*	*	*Xlig	*	*	*
!	!	!LO:MO:mod=-ctus	!	!	!	!LO:LB:g=original	!	!	!
2GG/	-no-	-ct(us)	1G	-de	-ra	1D	.	-sce-	.
*	*	*	*	*Xij	*	*	*	*	*
1BB-/	-cens	ho-	.	.	.	.	.	.	.
=94-	=94-	=94-	=94-	=94-	=94-	=94-	=94-	=94-	=94-
.	.	.	1rA	.	.	0F	.	-ra	.
2AA/	ma-	.	.	.	.	.	.	.	.
2BB-/	.	.	2r	.	.	.	.	.	.
2D/	.	.	2B-\	in-	fa-	.	.	.	.
=95-	=95-	=95-	=95-	=95-	=95-	=95-	=95-	=95-	=95-
*	*	*	*custos:d	*	*	*	*	*	*
1C	.	.	1c	-no-	-ctus	1E	.	.	.
!	!	!	!LO:LB:g=original	!	!	!	!	!	!
2.BB-/	.	.	2d\	-cens	ho-	1D	.	.	.
.	.	.	1B-\	ma-	.	.	.	.	.
4AA/	-ni-	.	.	.	.	.	.	.	.
=96-	=96-	=96-	=96-	=96-	=96-	=96-	=96-	=96-	=96-
*	*	*	*	*	*	*lig	*	*	*
1FF	-bus	-mo	.	.	.	1F	.	.	.
.	.	.	4A/	.	.	.	.	.	.
.	.	.	4B-\	.	.	.	.	.	.
2r	.	.	2c\	.	.	1C	.	.	.
2AA/	et	fa-	2c\	-ni-	-mo	.	.	.	.
*	*	*	*	*	*	*Xlig	*	*	*
=97-	=97-	=97-	=97-	=97-	=97-	=97-	=97-	=97-	=97-
!	!	!LO:MO:mod=-ctus	!	!	!	!	!	!	!
2BB-/	mun-	-ct(us)	2F/	-bus	ho-	1BB-,<	.	.	.
*	*	*	*	*ij	*	*	*	*	*
1D	-do	ho-	2.B-\	ma-	.	.	.	.	.
*	*	*	*	*	*	*lig	*	*	*
.	.	.	.	.	.	1BB-	et	.	.
.	.	.	4A/	.	.	.	.	.	.
4C/	.	.	1G/	-ni-	.	.	.	.	.
4BB-/	.	.	.	.	.	.	.	.	.
=98-	=98-	=98-	=98-	=98-	=98-	=98-	=98-	=98-	=98-
1AA	cor-	.	.	.	.	1C	.	.	.
!	!	!	!LO:SIC:s=2F#i	!	!	!	!	!	!
.	.	.	2F,</	-bus	-mo	.	.	.	.
*	*	*	*	*Xij	*	*Xlig	*	*	*
*custos:FF	*	*	*	*	*	*	*	*	*
*	*	*	*	*	*	*lig	*	*	*
1GG	.	.	1G	et	fa-	1D	.	.	.
!LO:PB:g=original	!	!	!	!	!	!	!	!	!
=99-	=99-	=99-	=99-	=99-	=99-	=99-	=99-	=99-	=99-
2FF/	-de	mo	2c\	mun-	.	1F,<	.	.	.
*	*ij	*	*	*	*	*	*	*	*
1F	in-	fa-	2A/	-do	.	.	.	.	.
*	*	*	*	*	*	*Xlig	*	*	*
.	.	.	1G	cor-	.	1C	mun-	fa-	.
2E\	-no-	.	.	.	.	.	.	.	.
=100-	=100-	=100-	=100-	=100-	=100-	=100-	=100-	=100-	=100-
!	!	!LO:MO:mod=-ctus	!	!	!	!	!	!	!
2D/	-cens	-ct(us)	2F/	-de	.	1D,<	-do	-ctus	.
!	!	!	!	!	!LO:MO:mod=-ctus	!	!	!	!
2GG/	ma-	ho-	2G/	et	-ct(us)	.	.	.	.
*	*	*	*	*	*	*lig	*	*	*
!	!	!	!	!	!	!	!LO:MO:mod=cor-	!	!
1D	ni-	.	2A/	mun-	ho-	1F	Cor-	ho-	.
*	*	*	*custos:A	*	*	*	*	*	*
.	.	.	2B-\	-do	.	.	.	.	.
!	!	!	!LO:LB:g=original	!	!	!	!	!	!
=101-	=101-	=101-	=101-	=101-	=101-	=101-	=101-	=101-	=101-
2.F\	-bus	.	1.A	cor-	.	1D	.	.	.
4E\	.	.	.	.	.	.	.	.	.
*	*	*	*	*	*	*Xlig	*	*	*
*	*	*	*	*	*	*lig	*	*	*
1D	et	.	.	.	.	1F	.	.	.
.	.	.	2B-\	.	.	.	.	.	.
=102-	=102-	=102-	=102-	=102-	=102-	=102-	=102-	=102-	=102-
2C/	mun-	.	2c\	.	.	1G	.	.	.
2BB-/	-do	.	2d\	.	.	.	.	.	.
*	*	*	*	*	*	*Xlig	*	*	*
*	*	*	*	*	*	*lig	*	*	*
1C	cor-	.	0c,<	de	-mo	1G	-de	.	.
=103-	=103-	=103-	=103-	=103-	=103-	=103-	=103-	=103-	=103-
*	*	*	*	*	*	*custos:F	*	*	*
1FF	-de	-mo	.	.	.	1A	.	.	.
*	*Xij	*	*	*	*	*Xlig	*	*	*
!	!	!	!	!	!	!LO:LB:g=original	!	!	!
*	*	*	*	*	*	*lig	*	*	*
2r	.	.	2A/	et	al-	1F	.	-mo	.
2BB-/	et	al-	2B-\	mun-	-le-	.	.	.	.
=104-	=104-	=104-	=104-	=104-	=104-	=104-	=104-	=104-	=104-
1C	mun-	-le-	2G/	-do	.	1E	.	.	.
.	.	.	1A	cor-	.	.	.	.	.
*	*	*	*	*	*	*Xlig	*	*	*
*	*	*	*	*	*	*lig	*	*	*
1D	-do	.	.	.	.	1F	.	al-	.
.	.	.	2F/	-de	.	.	.	.	.
=105-	=105-	=105-	=105-	=105-	=105-	=105-	=105-	=105-	=105-
*	*	*	*	*ij	*	*	*	*	*
2.GG/	Cor-	.	1.B-	et	.	1G	.	.	.
4AA/	.	.	.	.	.	.	.	.	.
*	*	*	*	*	*	*Xlig	*	*	*
2BB-/	.	.	.	.	.	0F	.	-le-	.
*custos:D	*	*	*	*	*	*	*	*	*
2C/	.	.	4A/	.	.	.	.	.	.
.	.	.	4G/	.	.	.	.	.	.
!LO:LB:g=original	!	!	!	!	!	!	!	!	!
=106-	=106-	=106-	=106-	=106-	=106-	=106-	=106-	=106-	=106-
1D	.	.	1F	mun-	.	.	.	.	.
2C/	.	.	2G/	-do	.	1E	.	.	.
2AA/	.	.	1A\	cor-	.	.	.	.	.
=107-	=107-	=107-	=107-	=107-	=107-	=107-	=107-	=107-	=107-
*	*	*	*	*	*	*lig	*	*	*
1BB-	-de	-lu-	.	.	.	1D	.	.	.
!	!	!	!LO:SIC:s=2G#i	!	!	!	!	!	!
.	.	.	2G/	.	.	.	.	.	.
!	!	!LO:MO:mod=-ia	!	!	!	!	!	!	!
1AA	.	-ja	1A	.	-lu-	1E	.	.	.
*	*	*	*	*	*	*Xlig	*	*	*
=108-	=108-	=108-	=108-	=108-	=108-	=108-	=108-	=108-	=108-
!	!	!	!	!	!LO:MO:mod=-ia	!	!	!	!
2r	.	.	1D	-de	-ja	0F	.	-lu-	.
*	*ij	*	*	*Xij	*	*	*	*	*
2D/	mun-	al-	.	.	.	.	.	.	.
2.BB-/	.	-le-	2r	.	.	.	.	.	.
*	*	*	*custos:F	*	*	*	*	*	*
.	.	.	2D/	et	al-	.	.	.	.
4C/	.	-lu-	.	.	.	.	.	.	.
!	!	!	!LO:LB:g=original	!	!	!	!	!	!
=109-	=109-	=109-	=109-	=109-	=109-	=109-	=109-	=109-	=109-
!	!	!	!LO:SIC:s=2.F#i	!	!	!LO:MO:mod=[0D	!	!	!
1D	-do	-ia	2.F/	mun-	-le-	[0Dl;;	.	-ia.	.
.	.	.	4G/	.	.	.	.	.	.
2r	.	.	2A/	.	.	.	.	.	.
1GG/	cor-	al-	1B-\	-do	.	.	.	.	.
=110-	=110-	=110-	=110-	=110-	=110-	=110-	=110-	=110-	=110-
.	.	.	.	.	.	0D_	.	.	.
!LO:SIC:s=2FF#i	!	!	!	!	!	!	!	!	!
2FF/	.	-le-	2A/	cor-	.	.	.	.	.
1GG	.	-lu-	1G	.	-lu-	.	.	.	.
=111-	=111-	=111-	=111-	=111-	=111-	=111-	=111-	=111-	=111-
!	!	!	!LO:TX:t=P:problem=♯ above/below	!	!	!	!	!	!
!LO:SIC:s=0D;	!LO:MO:mod=de.	!LO:MO:mod=-ia.	!LO:SIC:s=0F#;	!LO:MO:mod=-de.	!LO:MO:mod=-ia.	!LO:SIC:s=0D;]	!	!	!
0D;;	-de	-ja.	0F#Xl;;	-de	-ja.	0D]	.	.	.
*	*Xij	*	*	*	*	*	*	*	*
==	==	==	==	==	==	==	==	==	==
*-	*-	*-	*-	*-	*-	*-	*-	*-	*-
!!!system-decoration: [(*)]
!!!RDF**kern: < = below
!!!RDF**kern: l = terminal long
!!!RDF**kern: i = editorial accidental
!!!filter-modern: shed -k -e "s/,//D" | shed -e "s/LO:TX.*:problem.*//L" | sic -sq | modori -m | autostem -r | tie -s | humtr -p | shed -e "s/-//B" | shed -e "s/^custos:/Xcustos:/I"
!!!ENC: Marta Lawrence
!!!END: 2021-03-21
!!!ENC: Krzysztof Stępień
!!!END: 2021-03-06
!!!ENC-modern: Andrzej Kubiczek
!!!END-modern: 2022-06-25
!!!YEC: Copyright 2022 Narodowy Instytut Fryderyka Chopina (https://polishscores.org)
!!!YEM: Licence CC BY 4.0 (https://creativecommons.org/licenses/by/4.0)
